X:1
T:Title
%%score { ( 1 4 ) | ( 2 3 ) }
L:1/8
M:6/4
K:F
V:1 treble nm="Grand Piano"
V:4 treble 
V:2 bass 
V:3 bass 
V:1
 z6 z4[Q:1/4=108] A>G | F2 A2 c2 [Ee]4 [Ed][Ec] | [EB]2 D2 B2 A4 A2 | [^CA]2 [CB]2 [CA]2 G2 F2 EF | %4
 G2 D2 A2 [EG]4 [EA]>[EG] | F2 A2 c2 [Ee]4 [Ed][Ec] | [EB]2 D2 B2 A4 A>A | c2 =B2 A2 A2 G2 G2 | %8
[M:5/4] [FG]2 [FA]2 [FG]2 [Ec]4 |[M:1/4] [EA]>[EG] |[M:6/4] F2 F2 F2 F4 FA | %11
 c2 c2 [_Ad]2 [=Ac]4 Ac | d2 c2 A2 D2 A2 G2 |[M:5/4] [B,EG]2- [B,EG]2- [B,EG]6 |[M:1/4] E-[EG] | %15
[M:6/4] F2 F2 F2 F2 A2 c2 | d2 ^c2 d2 F4 G2 | A2 c2 [Fd]2 [Fc] [FA]3 [EG]2 |[M:5/4] F2- F2- F6 |] %19
V:2
 z6 z4 [F,CF]>[F,B,F] | [F,A,]2 [F,CF]2 [F,A,F]2 [C,B,]4 [C,B,][C,A,] | %2
 [C,G,]2 [C,G,]2 [C,G,^C]2 [F,A,=C]4 [F,A,C]2 | z6 .B,6 | %4
 [G,=B,D]2 [G,B,]2 [G,B,F]2 [C,C]4 [C,C]>[C,_B,] | [F,A,]2 [F,CF]2 [F,A,F]2 [C,B,]4 [C,B,][C,A,] | %6
 [C,G,]2 [C,G,]2 [C,G,D]2 [F,A,C]4 [F,CF]>[F,CF] | %7
 [^F,A,_E]2 [F,=B,E]2 [F,CE]2 [G,C=E]2 [G,CE]2 [E,C]2 |[M:5/4] [D,=B,]2 [G,B,]2 [G,B,]2 [C,C]4 | %9
[M:1/4] [C,C]>[C,B,] |[M:6/4] [F,A,C]2 [F,B,D]2 [F,_A,=B,]2 [F,=A,C]4 [F,A,C][F,CF] | %11
 [F,A,F]2 [F,A,F]2 [F,=B,]2 [F,C]4[K:treble] [F,CF][F,A,F] | %12
 [B,F]2 [F,A,F]2 [F,CF]2 [G,=B,]2 [G,B,F]2 [G,B,F]2 |[M:5/4][K:bass] C,2- C,2- C,6 |[M:1/4] z B, | %15
[M:6/4] [F,A,]2 [F,B,D]2 [F,_A,=B,]2 [F,=A,C]2 [F,C_E]2 [F,A,E]2 | %16
 [B,F]2 [B,F]2 [B,F]2 [=B,D]4 [_B,DF]2 | [A,CF]2[K:bass] [F,A,F]2 [B,,B,]2 [C,A,] [C,C]3 [C,B,]2 | %18
[M:5/4] A,4 B,2 A,4 |] %19
V:3
 x12 | x12 | x12 | [A,,E,]2 [A,,E,]2 [A,,A,]2 [D,D]2- [D,A,D]2 [D,_A,D][D,=A,D] | x12 | x12 | x12 | %7
 x12 |[M:5/4] x10 |[M:1/4] x2 |[M:6/4] x12 | x10[K:treble] x2 | x12 |[M:5/4][K:bass] x10 | %14
[M:1/4] C,2 |[M:6/4] x12 | x12 | x2[K:bass] x10 |[M:5/4] F,2- F,2- F,6 |] %19
V:4
 x12 | x12 | x12 | x12 | x12 | x12 | x12 | x12 |[M:5/4] x10 |[M:1/4] x2 |[M:6/4] x12 | x12 | x12 | %13
[M:5/4] x10 |[M:1/4] [CA] z |[M:6/4] x12 | x12 | x12 |[M:5/4] z4 D2 C4 |] %19

